src/svg/vendor-android.svg

<svg version="1.2" baseProfile="tiny" xmlns="http://www.w3.org/2000/svg" width="24" height="24" viewBox="0 0 24 24"><path d="M7.1 8h9.799999999999999c.1 0 .1 0 .1-.1-.1-.5-.2-.9-.4-1.3-.4-.9-1.1-1.5-1.9-2l-.4-.2s0-.1.1-.1c.3-.4.6-.8.9-1.3.1-.1.1-.2 0-.3-.1-.1-.2 0-.3.1l-.9 1.3s-.1.1-.1 0c-.8-.3-1.6-.4-2.4-.4-.6 0-1.1.2-1.6.4h-.1l-.9-1.2s0-.1-.1-.1c-.1-.1-.2-.1-.2 0-.1 0-.1.1 0 .2 0 0 0 .1.1.1.2.4.5.8.8 1.2l.1.1h-.1c-.6.3-1.1.7-1.5 1.2-.6.6-1 1.4-1.1 2.3 0 .1 0 .1.1.1zm7.1-2.8c.4 0 .8.3.8.8 0 .4-.3.8-.7.8-.4 0-.8-.3-.8-.8-.1-.4.3-.8.7-.8zm-4.3 0c.4 0 .8.3.8.8 0 .4-.3.8-.7.8-.5 0-.9-.4-.9-.8s.4-.8.8-.8zM5 9c-.5 0-1 .5-1 1v5c0 .5.5 1 1 1s1-.5 1-1v-5c0-.5-.5-1-1-1zM19 9c-.5 0-1 .5-1 1v5c0 .5.5 1 1 1s1-.5 1-1v-5c0-.5-.5-1-1-1zM7 17c0 .5.5 1 1 1h1v3c0 .5.5 1 1 1s1-.5 1-1v-3h2v3c0 .5.5 1 1 1s1-.5 1-1v-3h1c.5 0 1-.5 1-1v-8h-10v8z"/></svg>

<?xml version="1.0" encoding="iso-8859-1"?>
<!-- Generator: Adobe Illustrator 16.2.1, SVG Export Plug-In . SVG Version: 6.00 Build 0)  -->
<svg version="1.2" baseProfile="tiny" id="Layer_1" xmlns="http://www.w3.org/2000/svg" xmlns:xlink="http://www.w3.org/1999/xlink"
	 x="0px" y="0px" width="24px" height="24px" viewBox="0 0 24 24" xml:space="preserve">
	<path d="M7.1,8c3.2,0,6.5,0,9.7,0c0,0,0,0,0.1,0C17,8,17,8,17,7.9c-0.1-0.5-0.2-0.9-0.4-1.3c-0.4-0.9-1.1-1.5-1.9-2
		c-0.1-0.1-0.3-0.1-0.4-0.2c0,0,0-0.1,0.1-0.1C14.7,3.9,15,3.5,15.3,3c0.1-0.1,0.1-0.2,0-0.3c-0.1-0.1-0.2,0-0.3,0.1
		c-0.3,0.4-0.6,0.9-0.9,1.3c0,0-0.1,0.1-0.1,0c-0.8-0.3-1.6-0.4-2.4-0.4c-0.6,0-1.1,0.2-1.6,0.4c-0.1,0-0.1,0-0.1,0
		C9.6,3.7,9.3,3.3,9,2.9c0,0,0-0.1-0.1-0.1c-0.1-0.1-0.2-0.1-0.2,0c-0.1,0-0.1,0.1,0,0.2c0,0,0,0.1,0.1,0.1C9,3.5,9.3,3.9,9.6,4.3
		c0,0,0,0,0.1,0.1c0,0-0.1,0-0.1,0C9,4.7,8.5,5.1,8.1,5.6C7.5,6.2,7.1,7,7,7.9C7,8,7,8,7.1,8z M14.2,5.2c0.4,0,0.8,0.3,0.8,0.8
		c0,0.4-0.3,0.8-0.7,0.8c-0.4,0-0.8-0.3-0.8-0.8C13.4,5.6,13.8,5.2,14.2,5.2z M9.9,5.2c0.4,0,0.8,0.3,0.8,0.8c0,0.4-0.3,0.8-0.7,0.8
		C9.5,6.8,9.1,6.4,9.1,6C9.1,5.6,9.5,5.2,9.9,5.2z"/>
	<path d="M5,9c-0.5,0-1,0.5-1,1v5c0,0.5,0.5,1,1,1s1-0.5,1-1v-5C6,9.5,5.5,9,5,9z"/>
	<path d="M19,9c-0.5,0-1,0.5-1,1v5c0,0.5,0.5,1,1,1s1-0.5,1-1v-5C20,9.5,19.5,9,19,9z"/>
	<path d="M7,17c0,0.5,0.5,1,1,1h1v3c0,0.5,0.5,1,1,1s1-0.5,1-1v-3h2v3c0,0.5,0.5,1,1,1s1-0.5,1-1v-3h1c0.5,0,1-0.5,1-1V9H7V17z"/>
</svg>
